src/22/actions/step_object_SoftBody.svg

<svg xmlns="http://www.w3.org/2000/svg" viewBox="0 0 22 22">
  <defs id="defs3051">
    <style type="text/css" id="current-color-scheme">
      .ColorScheme-Text {
        color:#5d656b;
      }
      </style>
  </defs>
 <path 
     style="fill:currentColor;fill-opacity:1;stroke:none" 
     d="M 10.957031 2.9785156 C 8.2909611 3.0038181 5.63898 3.70262 3 5 C 6.10652 10.00281 5.04843 13.22826 3 17 C 8.61051 19.97955 13.96726 19.34486 19 17 C 16.49244 13.12021 16.27821 9.79725 19 5 C 16.303245 3.60141 13.623102 2.9532131 10.957031 2.9785156 z M 10.714844 3.9921875 C 11.59356 3.9671312 12.487536 4.04131 13.396484 4.203125 C 13.106879 5.3680122 12.881262 6.5296003 12.732422 7.6875 C 12.294938 7.6478327 11.854548 7.6161813 11.404297 7.6054688 C 10.696256 7.5886227 9.9658001 7.6265078 9.2226562 7.6914062 C 9.0756436 6.5464863 8.8528455 5.3978488 8.5683594 4.2460938 C 9.2781043 4.113869 9.9914609 4.0128246 10.714844 3.9921875 z M 14.373047 4.4199219 C 15.443305 4.6830915 16.532896 5.0543423 17.648438 5.5546875 C 17.158114 6.4986373 16.790958 7.4456102 16.542969 8.3886719 C 15.626843 8.147235 14.691552 7.9434436 13.724609 7.8085938 C 13.869886 6.6854725 14.08952 5.5553789 14.373047 4.4199219 z M 7.5878906 4.4453125 C 7.8666712 5.5656328 8.0843514 6.6807596 8.2285156 7.7890625 C 7.3398096 7.9120997 6.4161402 8.1161369 5.4707031 8.3769531 C 5.2096182 7.4820912 4.8331505 6.5450917 4.328125 5.5644531 C 5.4088726 5.1027271 6.4929762 4.720332 7.5878906 4.4453125 z M 11.009766 8.6035156 C 11.560091 8.6030297 12.099108 8.6275056 12.628906 8.6757812 C 12.481247 10.266594 12.471452 11.850129 12.607422 13.423828 C 11.561607 13.517952 10.476862 13.519509 9.3496094 13.421875 C 9.485188 11.850148 9.4734224 10.268496 9.3261719 8.6796875 C 9.8978079 8.6294494 10.459441 8.6040016 11.009766 8.6035156 z M 8.3320312 8.78125 C 8.4735577 10.305589 8.4844646 11.819068 8.3554688 13.322266 C 7.5036603 13.202405 6.6168641 13.00377 5.7050781 12.75 C 5.7608017 12.474469 5.8214042 12.202311 5.8535156 11.912109 C 5.9419847 11.112579 5.8888444 10.254866 5.7089844 9.3496094 C 6.6110252 9.0988629 7.488637 8.9009707 8.3320312 8.78125 z M 13.621094 8.7988281 C 14.550648 8.9317198 15.453884 9.1312624 16.34375 9.3691406 C 16.147606 10.505101 16.129641 11.63214 16.300781 12.742188 C 15.41721 12.97633 14.520428 13.171907 13.597656 13.302734 C 13.470767 11.811445 13.481711 10.310923 13.621094 8.7988281 z M 5.4628906 13.716797 C 6.4183202 13.981453 7.3505492 14.19075 8.2480469 14.314453 C 8.1115717 15.382792 7.8924923 16.445553 7.6074219 17.503906 C 6.49289 17.252275 5.4145056 16.896195 4.3574219 16.449219 C 4.7746391 15.58829 5.1696344 14.687526 5.4628906 13.716797 z M 16.490234 13.722656 C 16.726365 14.643238 17.09014 15.548693 17.59375 16.433594 C 16.454068 16.905739 15.374956 17.243391 14.341797 17.478516 C 14.058826 16.421485 13.842424 15.359811 13.707031 14.292969 C 14.661852 14.160295 15.585165 13.959298 16.490234 13.722656 z M 9.2402344 14.410156 C 10.442768 14.51449 11.600761 14.512376 12.714844 14.412109 C 12.852368 15.50027 13.072568 16.582446 13.357422 17.660156 C 11.65707 17.940808 10.080087 17.932467 8.5878906 17.695312 C 8.8776468 16.605486 9.1012727 15.510439 9.2402344 14.410156 z "
     class="ColorScheme-Text"
     />
</svg>

<svg xmlns="http://www.w3.org/2000/svg" viewBox="0 0 22 22"><path d="M10.957 2.979C8.291 3.004 5.639 3.703 3 5c3.107 5.003 2.048 8.228 0 12 5.61 2.98 10.967 2.345 16 0-2.508-3.88-2.722-7.203 0-12-2.697-1.399-5.377-2.047-8.043-2.021zm-.242 1.013c.879-.025 1.773.05 2.681.211a30.644 30.644 0 0 0-.664 3.484c-.437-.04-.877-.07-1.328-.082a19.8 19.8 0 0 0-2.181.086 30.666 30.666 0 0 0-.655-3.445c.71-.132 1.423-.233 2.147-.254zm3.658.428c1.07.263 2.16.634 3.275 1.135-.49.944-.857 1.89-1.105 2.834a24.094 24.094 0 0 0-2.818-.58c.145-1.124.365-2.254.648-3.39zm-6.785.025c.279 1.12.496 2.236.64 3.344-.888.123-1.812.327-2.757.588a15.866 15.866 0 0 0-1.143-2.813 21.885 21.885 0 0 1 3.26-1.119zm3.422 4.159c.55-.001 1.09.024 1.619.072a26.556 26.556 0 0 0-.022 4.748c-1.045.094-2.13.096-3.257-.002a26.566 26.566 0 0 0-.024-4.742c.572-.05 1.133-.076 1.684-.076zm-2.678.177a25.47 25.47 0 0 1 .023 4.541 20.738 20.738 0 0 1-2.65-.572c.056-.276.116-.548.149-.838.088-.8.035-1.657-.145-2.562.902-.251 1.78-.449 2.623-.569zm5.29.018c.929.133 1.832.332 2.722.57a10.406 10.406 0 0 0-.043 3.373 23.3 23.3 0 0 1-2.703.56A25.455 25.455 0 0 1 13.62 8.8zm-8.16 4.918c.956.264 1.889.474 2.786.597a23.919 23.919 0 0 1-.64 3.19 19.158 19.158 0 0 1-3.25-1.055c.417-.86.812-1.761 1.105-2.732zm11.028.006c.236.92.6 1.826 1.104 2.71a20.15 20.15 0 0 1-3.252 1.046 24.008 24.008 0 0 1-.635-3.186 24.077 24.077 0 0 0 2.783-.57zm-7.25.687c1.203.104 2.36.102 3.475.002a24.96 24.96 0 0 0 .642 3.248c-1.7.28-3.277.272-4.77.035.29-1.09.514-2.185.653-3.285z" fill="currentColor" color="#5d656b"/></svg>
